packages/core/src/svgs/tokens/branded/USDT.svg

<svg width="24" height="24" viewBox="0 0 24 24" fill="none" xmlns="http://www.w3.org/2000/svg">
<path d="M11.9999 20L2 10.135L5.81499 4H18.185L22 10.135L11.9999 20ZM13 11V9.77999C14.7999 9.86994 16.4799 10.2199 17 10.6749C16.395 11.205 14.23 11.59 11.9999 11.59C9.76997 11.59 7.60499 11.205 6.99998 10.6749C7.51499 10.2199 9.19999 9.87496 11 9.77498V11H13ZM6.99998 10.67V11.405C7.51499 11.86 9.19498 12.205 11 12.305V15H13V12.3C14.7999 12.21 16.4849 11.86 17 11.405V9.93994C16.4849 9.48494 14.7999 9.13495 13 9.03998V7.99999H16V6.5H7.99999V7.99999H11V9.03998C9.19498 9.13495 7.51499 9.48494 6.99998 9.93994V10.67Z" fill="#009393"/>
</svg>

<svg xmlns="http://www.w3.org/2000/svg" width="24" height="24" fill="none" viewBox="0 0 24 24">
    <path fill="#009393" d="M12 20 2 10.135 5.815 4h12.37L22 10.135zm1-9V9.78c1.8.09 3.48.44 4 .895-.605.53-2.77.915-5 .915s-4.395-.385-5-.915c.515-.455 2.2-.8 4-.9V11zm-6-.33v.735c.515.455 2.195.8 4 .9V15h2v-2.7c1.8-.09 3.485-.44 4-.895V9.94c-.515-.455-2.2-.805-4-.9V8h3V6.5H8V8h3v1.04c-1.805.095-3.485.445-4 .9z"/>
</svg>
